symbols/web/alarm/materialsymbolsrounded/alarm_grad200fill1_20px.svg

<svg xmlns="http://www.w3.org/2000/svg" height="20" width="20"><path d="M10 18.938q-1.688 0-3.167-.636-1.479-.635-2.593-1.76-1.115-1.125-1.75-2.604-.636-1.48-.636-3.146 0-1.688.636-3.167.635-1.479 1.75-2.594 1.114-1.114 2.593-1.75Q8.312 2.646 10 2.646q1.688 0 3.167.635 1.479.636 2.593 1.75 1.115 1.115 1.75 2.594.636 1.479.636 3.167 0 1.666-.636 3.146-.635 1.479-1.75 2.604-1.114 1.125-2.593 1.76-1.479.636-3.167.636ZM8.854 7.75v3.062q0 .23.073.417.073.188.24.354l2.145 2.146q.334.333.792.344.458.01.813-.344.333-.333.333-.791 0-.459-.333-.792l-1.771-1.771V7.729q0-.458-.323-.791-.323-.334-.823-.334-.458 0-.802.344-.344.344-.344.802ZM2.792 6.062q-.354.334-.802.334-.448 0-.782-.354-.354-.334-.343-.792.01-.458.343-.792l2.438-2.437q.333-.333.792-.344.458-.01.812.344.333.333.333.792 0 .458-.333.791Zm14.416 0L14.75 3.604q-.333-.333-.333-.781t.354-.802q.354-.333.823-.333.468 0 .802.333l2.437 2.437q.355.334.344.792-.01.458-.344.792-.354.354-.823.354-.468 0-.802-.334Z"/></svg>

<svg xmlns="http://www.w3.org/2000/svg" height="20" width="20"><path d="M10 18.938Q8.312 18.938 6.833 18.302Q5.354 17.667 4.24 16.542Q3.125 15.417 2.49 13.938Q1.854 12.458 1.854 10.792Q1.854 9.104 2.49 7.625Q3.125 6.146 4.24 5.031Q5.354 3.917 6.833 3.281Q8.312 2.646 10 2.646Q11.688 2.646 13.167 3.281Q14.646 3.917 15.76 5.031Q16.875 6.146 17.51 7.625Q18.146 9.104 18.146 10.792Q18.146 12.458 17.51 13.938Q16.875 15.417 15.76 16.542Q14.646 17.667 13.167 18.302Q11.688 18.938 10 18.938ZM8.854 7.75V10.812Q8.854 11.042 8.927 11.229Q9 11.417 9.167 11.583L11.312 13.729Q11.646 14.062 12.104 14.073Q12.562 14.083 12.917 13.729Q13.25 13.396 13.25 12.938Q13.25 12.479 12.917 12.146L11.146 10.375V7.729Q11.146 7.271 10.823 6.938Q10.5 6.604 10 6.604Q9.542 6.604 9.198 6.948Q8.854 7.292 8.854 7.75ZM2.792 6.062Q2.438 6.396 1.99 6.396Q1.542 6.396 1.208 6.042Q0.854 5.708 0.865 5.25Q0.875 4.792 1.208 4.458L3.646 2.021Q3.979 1.688 4.438 1.677Q4.896 1.667 5.25 2.021Q5.583 2.354 5.583 2.813Q5.583 3.271 5.25 3.604ZM17.208 6.062 14.75 3.604Q14.417 3.271 14.417 2.823Q14.417 2.375 14.771 2.021Q15.125 1.688 15.594 1.688Q16.062 1.688 16.396 2.021L18.833 4.458Q19.188 4.792 19.177 5.25Q19.167 5.708 18.833 6.042Q18.479 6.396 18.01 6.396Q17.542 6.396 17.208 6.062Z"/></svg>
